X:60
T:Drunken Scotchman, The
M:C|
L:1/8
B:Thompson's Compleat Collection of 200 Favourite Country Dances, vol. 1 (London, 1757)
Z:Transcribed and edited by Fynnian Titford-Mock, 2007
Z:abc's:AK/Fiddler's Companion
K:D
ABAF AFdF|A>Bd>F D/D/D B2|A>FD>F AA/A/ ag|1 f>de>f d/d/d d2:|2 f>de>f
d/d/d df|
|:afdf agfd|gafg e/e/e fg|afdf abaf|geaf d/d/d df/g/|afdf dAFD|
GBdF E/E/E B2|FAGB A>a e>g|1 f>def d/d/d df:|2 f>def d/d/d d2||

